assets/icons/skip-back-24.svg

<svg width="24" height="24" viewBox="0 0 24 24" fill="none" xmlns="http://www.w3.org/2000/svg">
<path fill-rule="evenodd" clip-rule="evenodd" d="M16.2111 4.41953C18.8708 3.11437 22 5.01251 22 7.93094V16.0691C22 18.9875 18.8708 20.8856 16.2111 19.5805L7.91935 15.5114C4.97116 14.0646 4.97115 9.93538 7.91935 8.4886L16.2111 4.41953ZM20 7.93094C20 6.47172 18.4354 5.52265 17.1056 6.17523L8.81377 10.2443C7.33968 10.9677 7.33968 13.0323 8.81378 13.7557L17.1056 17.8248C18.4354 18.4773 20 17.5283 20 16.0691V7.93094Z" fill="#F2F2F2"/>
<path d="M2 5.12973C2 4.58768 2.44772 4.14826 3 4.14826C3.55228 4.14826 4 4.58768 4 5.12973L4 18.8703C4 19.4123 3.55229 19.8517 3 19.8517C2.44772 19.8517 2 19.4123 2 18.8703L2 5.12973Z" fill="#F2F2F2"/>
</svg>

<svg xmlns="http://www.w3.org/2000/svg" width="24" height="24" viewBox="0 0 24 24"><path fill-rule="evenodd" d="M16.211 4.42C18.871 3.114 22 5.013 22 7.93v8.14c0 2.918-3.13 4.816-5.789 3.51L7.92 15.512c-2.948-1.446-2.948-5.576 0-7.022l8.292-4.07zM20 7.93c0-1.458-1.565-2.407-2.894-1.755l-8.292 4.07a1.947 1.947 0 000 3.51l8.292 4.07c1.33.652 2.894-.297 2.894-1.756V7.931z"/><path d="M2 5.13a.99.99 0 011-.982c.552 0 1 .44 1 .982v13.74a.99.99 0 01-1 .982.99.99 0 01-1-.982V5.13z"/></svg>
